X:1
T:E minor Timothy Swan, 1801
T:Anne Steele, 1760 Psalm 90                             88. 88. (L. M.)
T:Holland
T:Transcribed from Swan's New England Harmony, 1801.
%%score [ 1 2 3 4 ]
L:1/8
Q:1/8=180
M:4/4
K:G
V:1 treble nm="Tr." snm="Tr."
V:2 treble nm="C." snm="C."
V:3 treble-8 nm="T." snm="T."
V:4 bass nm="B." snm="B."
V:1
"^3.  Soon let thy mer–cy cheer our hearts,                                                                And           tune our grateful  songs        of           praise;      And""^2.  O   may thy fa –  vor,  Lord,  re –turn,                                                                 Nor        thy bright presence long          de    –     lay;            Nor""^1.  Uncertain  life,   how  soon  it    flies!                                                                  Dream      of  an hour, how  short         our         bloom!     Like" B8 | %1
 B2 e2 d4 | d4 d2 B2 | e8 | z8 | z8 | z8 | B8 | B2 B2 d2 d2 | B4 B4 | (A4 d2) d2 | %11
"^1.  spring's gay verdure now we rise, Cut down ere night  to      fill                the     tomb, _____    Cut  down ere night to fill _________    the    tomb.""^2.  let thy servants vainly mourn,     And weep their wretched   lives             a   –   way, _______   And weep their wretched lives ____   a  –  way.""^3.  let  the  joy  thy  smile imparts,     En  –  li  –  ven   all    our      fu      –        ture   days. ______    En – li – ven  all   our   fu        –        ture   days." B2 g2 e2 e2 | %12
 e3 f g2 B2 | AG FE E2 E2 | F6 F2 | (G4 A2) A2 | B2 B2 d2 B2 | (G3 A B2) d2 | B8 |] %19
V:2
"^1.  Uncertain  life,     how soon it  flies!                                         Dream               of an hour,  how short our bloom!______   Like  spring's  gay""^2.  O  may thy fa  –   vor,  Lord, re turn,                                         Nor               thy bright pre–sence  long  de–lay;  ________   Nor   let             thy""^3.  Soon let thy mercy cheer our hearts,                                        And               tune our grate–ful  songs  of  praise; ______   And   let             the" E8 | %1
 G2 G2 (G4 | A2) A2 B2 B2 | B8 | z8 | z8 | E8 | G2 G2 F4 | E4 F2 F2 | (B3 A G2) G2 | A4 B4 | %11
"^1. verdure now we  rise,                Cut     down           ere              night to fill  the  tomb,              Cut down ere night to fill             the          tomb.""^2.  servants vainly mourn,            And    weep            their           wretched lives a–way,      And weep their wretched lives          a      –     way.""^3.  joy thy smile im–parts,             En   –   li         –      ven              all our fu–ture   days,               En –  li  – ven all our    fu      –     ture        days." B2 B2 G3 A | %12
 B6 B2 | E4 A4 | F2 F2 F2 F2 | E6 E2 | B2 G2 [DF]2 E2 | G4 B4 | E8 |] %19
V:3
"^1. Uncertain life,     how soon  it   flies!              Dream        of an hour, how  short  our  bloom!   Like spring's gay verdure now we rise, ____""^2.  O  may thy fa – vor,  Lord,  re –turn,              Nor       thy bright presence long     de – lay; ____   Nor let  thy   servants  vainly  mourn,  _____""^3.  Soon let thy mercy cheer our hearts,             And          tune our grateful   songs      of  praise;   And let  the   joy  thy  smile  im–parts, _____" E8 | %1
 B2 B2 (B4 | A2) A2 d3 e | B8 | z8 | B8 | e2 e2 e2 e2 | (B4 d2) d2 | (e4 A2) B2 | d2 ef g2 B2 | %10
 d2 d2 (e2 f2 | %11
"^1. ________       Cut       down ere night to    fill                        the     tomb,          Cut    down _______  ere    night             to      fill ______   the         tomb.""^2. ________       And   weep their wretched lives                    a    –   way,            And   weep _______  their  wret    –    ched    lives ____   a     –     way.""^3. ________        En   –   li   –  ven  all   our    fu           –           ture    days,           En   –   li        –       ven      all                our     fu     –      ture       days." g6) B2 | %12
 B3 A G2 G2 | A6 A2 | A6 B2 | (G3 F E2) E2 | F6 G2 | (B2 G2) F4 | E8 |] %19
V:4
 E,8 | E,2 E,2 (G,4 | D,2) D,2 B,,2 B,,2 | E,8 | %4
"^1. Dream of an hour, how short our  bloom!  Like spring's gay verdure now we rise,  Cut down ere""^2.  Nor thy bright presence  long    de – lay; ___   Nor let thy servants vainly mourn,   And  weep  their""^3.  And  tune our grateful  songs    of  praise; __  And let the joy  thy  smile imparts,    En –  li    –   ven" G,8 | %5
 E,2 E,2 E,2 E,2 | (E,4 A,2) A,2 | (G,4 D,2) B,,2 | E,2 E,2 D,2 B,,2 | B,,2 B,,2 G,3 G, | %10
 D,4 B,,4 | %11
"^1.  night         to         fill                    the     tomb, __________________________           Cut   down       ere           night             to     fill               the        tomb.""^2.  wret   –   ched      lives                a   –   way.  ___________________________           And  weep       their         wret    –    ched  lives            a      –    way.""^3.  all              our        fu         –        ture   days. ___________________________            En   –  li     –    ven           all                 our    fu       –      ture     days." E,6 E,2 | %12
 E,6 B,,2 | (A,,8 | D,6) B,,2 | C,4 A,,4 | B,,6 E,2 | E,4 B,,4 | E,8 |] %19

